src/assets/obucheniye/icons/whatsapp.svg

<svg fill="none" height="40" viewBox="0 0 40 40" width="40" xmlns="http://www.w3.org/2000/svg"><path d="m37 0h-34c-1.65685 0-3 1.34315-3 3v34c0 1.6569 1.34315 3 3 3h34c1.6569 0 3-1.3431 3-3v-34c0-1.65685-1.3431-3-3-3z" fill="#1bd741"/><g fill="#fff"><path d="m6.01172 34.0034 1.95931-6.9589c-1.25995-2.1404-1.92333-4.5758-1.92333-7.0777 0-7.7032 6.267-13.97022 13.9703-13.97022 7.7032 0 13.9701 6.26702 13.9701 13.97022 0 7.7033-6.2669 13.9703-13.9701 13.9703-2.4003 0-4.7506-.6144-6.8299-1.7811zm7.54328-4.3889.4276.2611c1.8129 1.1067 3.8999 1.6917 6.0354 1.6917 6.3965 0 11.6003-5.204 11.6003-11.6005s-5.2038-11.6004-11.6003-11.6004-11.60048 5.2039-11.60048 11.6004c0 2.2288.63345 4.3932 1.83168 6.2591l.288.4484-1.1283 4.0075z"/><path d="m16.0939 13.4646-.9065-.0494c-.2848-.0155-.5641.0796-.7793.2666-.4394.3816-1.1421 1.1194-1.358 2.0809-.3218 1.4335.1756 3.1889 1.4629 4.9444 1.2874 1.7554 3.6864 4.5641 7.9286 5.7636 1.3671.3866 2.4424.126 3.2721-.4048.6572-.4203 1.1102-1.095 1.2734-1.8577l.1448-.676c.046-.2149-.0631-.4329-.2627-.5249l-3.0637-1.4122c-.1989-.0916-.4347-.0337-.5685.1397l-1.2027 1.5591c-.0908.1178-.2464.1645-.3868.1152-.8237-.2895-3.5827-1.445-5.0965-4.3611-.0657-.1265-.0494-.28.0438-.3878l1.1494-1.3298c.1175-.1358.1471-.3267.0766-.4917l-1.3206-3.0896c-.0704-.1645-.2279-.2747-.4063-.2845z"/></g></svg>

<svg width="40" height="40" viewBox="0 0 40 40" fill="none" xmlns="http://www.w3.org/2000/svg">
<path d="M37 0H3C1.34315 0 0 1.34315 0 3V37C0 38.6569 1.34315 40 3 40H37C38.6569 40 40 38.6569 40 37V3C40 1.34315 38.6569 0 37 0Z" fill="#1BD741"/>
<path d="M6.01172 34.0034L7.97103 27.0445C6.71108 24.9041 6.0477 22.4687 6.0477 19.9668C6.0477 12.2636 12.3147 5.99658 20.018 5.99658C27.7212 5.99658 33.9881 12.2636 33.9881 19.9668C33.9881 27.6701 27.7212 33.9371 20.018 33.9371C17.6177 33.9371 15.2674 33.3227 13.1881 32.156L6.01172 34.0034ZM13.555 29.6145L13.9826 29.8756C15.7955 30.9823 17.8825 31.5673 20.018 31.5673C26.4145 31.5673 31.6183 26.3633 31.6183 19.9668C31.6183 13.5703 26.4145 8.3664 20.018 8.3664C13.6215 8.3664 8.41752 13.5703 8.41752 19.9668C8.41752 22.1956 9.05097 24.36 10.2492 26.2259L10.5372 26.6743L9.4089 30.6818L13.555 29.6145Z" fill="white"/>
<path d="M16.0939 13.4646L15.1874 13.4152C14.9026 13.3997 14.6233 13.4948 14.4081 13.6818C13.9687 14.0634 13.266 14.8012 13.0501 15.7627C12.7283 17.1962 13.2257 18.9516 14.513 20.7071C15.8004 22.4625 18.1994 25.2712 22.4416 26.4707C23.8087 26.8573 24.884 26.5967 25.7137 26.0659C26.3709 25.6456 26.8239 24.9709 26.9871 24.2082L27.1319 23.5322C27.1779 23.3173 27.0688 23.0993 26.8692 23.0073L23.8055 21.5951C23.6066 21.5035 23.3708 21.5614 23.237 21.7348L22.0343 23.2939C21.9435 23.4117 21.7879 23.4584 21.6475 23.4091C20.8238 23.1196 18.0648 21.9641 16.551 19.048C16.4853 18.9215 16.5016 18.768 16.5948 18.6602L17.7442 17.3304C17.8617 17.1946 17.8913 17.0037 17.8208 16.8387L16.5002 13.7491C16.4298 13.5846 16.2723 13.4744 16.0939 13.4646Z" fill="white"/>
</svg>
